X: 4344
T: Lady Balhaven's Delight
%R: jig, air
N: This is version 1, for ABC software that doesn't understand voice overlays.
B: Niel Gow & Sons "A Fourth Collection of Strathspey Reels, etc." v.4 p.34 #4 (and top 4 staves of p.35)
Z: 2022 John Chambers <jc:trillian.mit.edu>
M: 6/8
L: 1/8
Q: "Slowish"
K: A
% - - - - - - - - - -
V: 1 staves=2
E |\
[A2C2][AC] [A2C2]c | {c}B2G E2G | A2E c2A | [B3-G3] [B2G2]c ||\
[A2C2][AC] [A2B,2]F | ~G2A Bcd | !p!TF2B {A}GFE | [A3E3C3] [A2E2C2] :|
e |\
{g}a2e (ag)b | a2f {f}e2c | A2A Tc2e | f2B B2g ||\
a2e (ag).b | {g}a2f {f}e2c | E2E EFG | {G}[A3E3C3] [A2E2C2] (e//f//g/) |
a2e (ag).b | {g}a2f {f}e2c | A2A ~c2e | f2B Bcd ||\
~c2e e2a | d2f f2b | (ec)A EFG | {G}[A3E3C3] [A2E2C2] |]
% - - - - - - - - - -
% Voice 2 preserves the staff layout in the book.
V: 2 clef=bass middle=d
z |\
[AA3]ce [AA3]ce | [GG3]Be [EE3]Be | [AA3]ce [AA3]ce | [EE3]Be [EE3]Be ||\
[cc3]ea [^dd3]fb | [ee3]gb [ee3]ga | !p![dd3]fb [ee3]gb | aec A2 :|
z |\
[aa3]c'e' [be3]d'e' | [aa3]c'e' [aa3]c'e' | [cc3]ea [cc3]ea | [dd3]fb [ee3]gb ||\
[aa3]c'e' [bb3]d'e' | [aa3]c'e' [aa3]c'e' | c2c cdB | Ace a2z |
[aa3]c'e' [bb3]d'e' | [aa3]c'e' [aa3]c'e' | [cc3]ea [cc3]ea | [dd3]fb [ee3]gb ||\
[cc3]ea [cc3]ea | [dd3]fa [dd3]fb | [ee3]ac' [ee3]gb | aec A2 |]
